src/assets/icons/steam-logo.svg

<svg width="157" height="50" viewBox="0 0 157 50" fill="none" xmlns="http://www.w3.org/2000/svg">
<path d="M23.558 1.30212C19.0996 1.61867 14.828 3.19421 11.326 5.81292C9.33406 7.30213 7.4428 9.23738 6.03335 11.223C4.81805 12.9352 3.63152 15.2877 2.95556 17.3237C2.40904 18.9712 1.90566 21.3381 1.85532 22.5108L1.83375 23.0431L3.66748 23.8129C4.67423 24.2302 7.49314 25.41 9.93092 26.4244L14.3606 28.2734L14.7777 28.0216C15.6694 27.4892 16.9638 27.1223 17.9777 27.1223H18.4667L18.7831 26.6762C18.9629 26.4244 19.531 25.5899 20.056 24.8201C20.5809 24.0503 21.4439 22.7841 21.9688 22.0144C22.4937 21.2446 23.1841 20.2374 23.5005 19.7769L24.0686 18.9424L24.1117 18.2302C24.3634 14.1007 27.4196 10.7122 31.5114 10.0287C32.3168 9.89205 33.8701 9.91364 34.5892 10.0719C37.2211 10.6403 39.2921 12.1654 40.6153 14.4964C40.9605 15.1079 41.3847 16.2158 41.5358 16.9208C41.7155 17.7554 41.7515 19.4028 41.6005 20.2949C40.982 24.0072 38.0121 27.0144 34.4022 27.5827C34.0139 27.6403 33.4602 27.705 33.1797 27.7266C32.6763 27.7554 32.6476 27.7626 31.9932 28.2446C31.6192 28.5108 30.6844 29.1798 29.915 29.7338C28.3473 30.8633 27.9158 31.1726 26.0677 32.5036L24.7733 33.4316L24.723 34.1079C24.572 35.9424 23.9679 37.3093 22.7526 38.518C21.6955 39.5827 20.3796 40.2374 18.9126 40.4316C17.424 40.6331 15.6766 40.2158 14.3966 39.3381C13.6056 38.7985 12.7426 37.8417 12.2824 36.9784C12.0091 36.4748 11.6496 35.4964 11.6496 35.2662C11.6496 35.1511 10.8945 34.8129 7.14078 33.2518C4.65985 32.2158 2.62477 31.3813 2.61039 31.3885C2.56005 31.446 3.43017 33.8561 3.78254 34.6331C4.99064 37.3237 6.52953 39.5539 8.62933 41.6618C10.2042 43.2446 11.5777 44.3309 13.2676 45.3237C21.1346 49.9712 30.9073 49.6331 38.4292 44.4532C40.4571 43.0575 42.6935 40.8561 44.1677 38.8057C47.8136 33.7194 49.3021 27.3669 48.3098 21.1151C47.2095 14.1439 43.0099 8.01435 36.8687 4.39565C32.9496 2.09349 28.1388 0.971191 23.558 1.30212Z" fill="#CCCCCC"/>
<path d="M31.6766 12.9928C29.4186 13.4964 27.628 15.3022 27.1318 17.5827C26.9736 18.3238 26.988 19.5324 27.175 20.2518C27.6136 21.9497 28.757 23.3741 30.3103 24.1439C31.2955 24.6331 31.9642 24.7698 33.1076 24.7338C33.9346 24.705 34.136 24.6691 34.7328 24.4676C36.6744 23.8058 38.1054 22.259 38.6232 20.2518C38.8389 19.3885 38.8461 18.2086 38.6232 17.3741C38.429 16.6331 37.9257 15.6187 37.487 15.072C36.7463 14.1583 35.531 13.3597 34.4092 13.0576C33.7836 12.8849 32.3094 12.8489 31.6766 12.9928ZM34.2079 14.5684C35.4447 14.964 36.3077 15.7122 36.8758 16.8777C37.2066 17.5468 37.2857 17.9425 37.2857 18.8489C37.2857 19.741 37.1994 20.0935 36.811 20.8705C36.3436 21.8058 35.5023 22.5612 34.4883 22.9568C34.0137 23.1439 33.7692 23.1943 33.1867 23.223C32.2591 23.2662 31.7413 23.1655 31.0078 22.7986C29.9292 22.2734 29.1382 21.3741 28.7354 20.2158C28.5485 19.6835 28.5269 19.5036 28.5269 18.813C28.5269 18.1223 28.5485 17.9425 28.7354 17.4101C29.1813 16.1367 30.1161 15.1367 31.2955 14.6691C31.8636 14.4461 32.1225 14.4029 32.9135 14.3957C33.5103 14.3885 33.7476 14.4245 34.2079 14.5684Z" fill="#CCCCCC"/>
<path d="M66.1219 16.0504C64.0365 16.3526 62.512 17.3166 61.7713 18.7914C61.3686 19.5972 61.2392 20.2591 61.2895 21.2878C61.3327 22.2878 61.4981 22.8418 61.9583 23.5396C62.7134 24.6763 63.8136 25.3238 66.5534 26.2591C68.4734 26.9137 69.1422 27.2303 69.5305 27.6691C69.8469 28.0288 69.9404 28.331 69.8757 28.7986C69.7247 29.9065 68.682 30.4677 66.8051 30.4605C65.3956 30.4533 63.9071 30.108 62.6127 29.4965C62.3394 29.367 62.1093 29.2806 62.0949 29.2878C62.0805 29.3022 61.8432 29.9281 61.57 30.6835C61.2895 31.4317 61.045 32.108 61.0163 32.1727C60.9803 32.2735 61.1097 32.3598 61.7138 32.6548C63.5979 33.5756 65.9493 34.0145 67.9341 33.8202C69.9835 33.6188 71.3714 33.0217 72.4357 31.8706C73.2483 30.9929 73.6294 30.0217 73.6869 28.6476C73.7445 27.4173 73.5359 26.626 72.9391 25.813C72.2559 24.8706 71.1269 24.2447 68.344 23.2519C66.3592 22.5396 66.0572 22.4029 65.5898 22.0288C64.77 21.3598 64.8491 20.1224 65.748 19.518C66.2154 19.2087 66.4887 19.1296 67.3444 19.0864C68.5525 19.0216 69.9835 19.3814 71.1413 20.036C71.4577 20.2159 71.7238 20.3526 71.7382 20.3454C71.8029 20.2806 73.2051 17.7483 73.2051 17.6979C73.2051 17.518 72.0474 16.8921 71.1197 16.5684C69.6384 16.0504 67.5961 15.8346 66.1219 16.0504Z" fill="#CCCCCC"/>
<path d="M151.322 16.1439C150.639 16.367 150.035 16.9425 149.812 17.5756C149.647 18.0648 149.647 18.8418 149.812 19.331C149.985 19.8274 150.481 20.3742 150.999 20.626C151.358 20.7986 151.495 20.8274 152.056 20.8274C152.617 20.8274 152.753 20.7986 153.113 20.626C153.559 20.4101 154.055 19.9065 154.22 19.5037C154.501 18.8346 154.465 17.9065 154.141 17.2734C153.933 16.8634 153.48 16.4389 153.034 16.2375C152.617 16.0504 151.747 16.0073 151.322 16.1439ZM152.919 16.6475C153.616 16.9785 153.99 17.6044 153.99 18.4533C153.99 19.6475 153.228 20.4317 152.056 20.4317C151.437 20.4317 150.948 20.2231 150.589 19.8202C150.222 19.4029 150.121 19.108 150.121 18.4533C150.121 17.7986 150.222 17.5037 150.589 17.0864C151.121 16.4821 152.156 16.2878 152.919 16.6475Z" fill="#CCCCCC"/>
<path d="M151.243 18.3886L151.265 19.6044H151.445C151.617 19.6044 151.624 19.5828 151.646 19.1512L151.667 18.7051H151.898C152.113 18.7051 152.149 18.7411 152.365 19.1728C152.574 19.59 152.617 19.6404 152.811 19.6404C152.926 19.6404 153.027 19.6188 153.027 19.59C153.027 19.5684 152.912 19.3382 152.775 19.0864L152.523 18.6188L152.703 18.403C152.94 18.1224 152.947 17.7123 152.71 17.4389C152.559 17.2519 152.494 17.2375 151.883 17.2087L151.229 17.18L151.243 18.3886ZM152.437 17.8922C152.466 18.1656 152.25 18.3454 151.898 18.3454C151.66 18.3454 151.66 18.3454 151.66 17.9785V17.6188L152.041 17.6404C152.401 17.662 152.415 17.6692 152.437 17.8922Z" fill="#CCCCCC"/>
<path d="M76.3693 17.8058V19.3526L78.9437 19.367L81.5109 19.3885L81.5325 26.4893L81.5469 33.5972H83.3447H85.1424L85.1568 26.4893L85.1784 19.3885L87.6953 19.3741C89.0831 19.367 90.2481 19.3598 90.2841 19.3526C90.3272 19.3526 90.356 18.7986 90.3488 17.8202V16.295L83.359 16.2734L76.3693 16.259V17.8058Z" fill="#CCCCCC"/>
<path d="M94.311 16.3452C94.2894 16.3956 94.2823 20.2877 94.2894 24.9999L94.311 33.561H100.085H105.86V32.0143V30.4675L101.898 30.4459L97.9425 30.4315V28.4172V26.4028H101.358H104.774V24.82V23.2373H101.358H97.9425V21.2949V19.3524L101.898 19.338L105.853 19.3164L105.867 17.8057L105.874 16.2949L100.107 16.2733C95.5335 16.2589 94.3326 16.2733 94.311 16.3452Z" fill="#CCCCCC"/>
<path d="M115.338 16.4533C115.23 16.7411 113.26 22.0216 111.153 27.6979C110.664 29.0216 109.981 30.8562 109.635 31.777C109.297 32.6979 109.017 33.4821 109.017 33.5252C109.017 33.5756 109.65 33.5972 110.88 33.5972H112.742L113.231 32.1727C113.497 31.3957 113.756 30.6403 113.799 30.5036L113.885 30.2518L117.229 30.2303L120.58 30.2159L121.156 31.8849L121.731 33.5612L123.68 33.5828C124.751 33.59 125.628 33.5828 125.628 33.5612C125.628 33.5396 124.866 31.5252 123.931 29.0792C122.996 26.6403 121.558 22.8634 120.731 20.6979C119.904 18.5252 119.178 16.6403 119.12 16.5036L119.02 16.259H117.215H115.417L115.338 16.4533ZM117.488 21.259C117.603 21.6116 118.114 23.0864 118.61 24.5252C119.106 25.9713 119.516 27.1871 119.516 27.2375C119.516 27.3166 119.049 27.331 117.215 27.331C115.949 27.331 114.914 27.3094 114.914 27.2806C114.907 27.1223 117.179 20.5108 117.222 20.554C117.244 20.59 117.366 20.8993 117.488 21.259Z" fill="#CCCCCC"/>
<path d="M129.296 24.9281V33.5972L131.007 33.5828L132.712 33.5612L132.748 28.3813L132.784 23.2087L133.805 25.4317C134.373 26.6619 135.394 28.8777 136.077 30.3598L137.321 33.0576H138.35H139.371L140.557 30.5036C141.204 29.1008 142.247 26.8562 142.873 25.5108L144.002 23.0792L144.023 28.3382L144.038 33.5972H145.764H147.489V24.9281V16.259H145.749L144.002 16.2662L141.24 22.4821C139.723 25.9065 138.472 28.6979 138.457 28.6907C138.443 28.6691 136.494 24.4461 134.021 19.0792L132.726 16.259H131.007H129.296V24.9281Z" fill="#CCCCCC"/>
<path d="M16.9493 28.8921C16.4316 29.0144 16.3453 29.0648 16.4891 29.1439C16.5466 29.1799 17.1866 29.4533 17.9129 29.7554C19.5741 30.4461 19.8186 30.5684 20.2572 30.9425C21.0986 31.6619 21.5373 32.6403 21.5301 33.777C21.5229 35.1727 20.7534 36.4389 19.5453 37.036C18.97 37.3166 18.5817 37.4029 17.9058 37.4101C17.1938 37.4101 16.9206 37.331 15.1444 36.59C14.3174 36.2518 13.6271 35.9785 13.6199 35.9928C13.5551 36.0504 14.2383 36.9928 14.6194 37.3741C15.7053 38.4533 17.2154 38.9713 18.6896 38.777C20.8613 38.4892 22.544 36.9065 22.9827 34.741C23.5076 32.1367 21.8609 29.554 19.2361 28.8849C18.704 28.7482 17.5174 28.7554 16.9493 28.8921Z" fill="#CCCCCC"/>
</svg>

<svg id="Layer_1" data-name="Layer 1" xmlns="http://www.w3.org/2000/svg" viewBox="0 0 152.58 47.34"><defs><style>.cls-1{fill:#243042;}</style></defs><title>steam-logo</title><path class="cls-1" d="M23.56,1.3A23.21,23.21,0,0,0,11.33,5.81,25.16,25.16,0,0,0,6,11.22,25.12,25.12,0,0,0,3,17.32a24,24,0,0,0-1.1,5.19l0,.53,1.84.77,6.26,2.61,4.43,1.85.42-.25a6.86,6.86,0,0,1,3.2-.9h.49l.31-.44,1.28-1.86L22,22c.52-.77,1.21-1.77,1.53-2.23l.57-.84,0-.71a8.85,8.85,0,0,1,7.4-8.2,10.55,10.55,0,0,1,3.08,0,8.94,8.94,0,0,1,6,4.43,11.2,11.2,0,0,1,.92,2.42,11.51,11.51,0,0,1,.06,3.37,8.87,8.87,0,0,1-7.2,7.29c-.39.06-.94.12-1.22.15-.5,0-.53,0-1.19.51l-2.07,1.49L26.07,32.5l-1.3.93-.05.68a6.75,6.75,0,0,1-5.81,6.32,6.73,6.73,0,0,1-4.51-1.09A7.39,7.39,0,0,1,12.28,37a7,7,0,0,1-.63-1.71c0-.12-.76-.46-4.51-2-2.48-1-4.52-1.87-4.53-1.86a28.41,28.41,0,0,0,1.17,3.24,23.1,23.1,0,0,0,4.85,7,21.73,21.73,0,0,0,4.64,3.66,23.32,23.32,0,0,0,25.16-.87,25.37,25.37,0,0,0,5.74-5.64,24,24,0,0,0,4.14-17.69A23.7,23.7,0,0,0,36.87,4.4,23.39,23.39,0,0,0,23.56,1.3Z" transform="translate(-1.83 -1.25)"/><path class="cls-1" d="M31.68,13a6,6,0,0,0-4.55,4.59,7,7,0,0,0,0,2.67,6,6,0,0,0,3.14,3.89,5.05,5.05,0,0,0,2.8.59,4.39,4.39,0,0,0,1.62-.26,6,6,0,0,0,3.89-4.22,6.23,6.23,0,0,0,0-2.88,7.16,7.16,0,0,0-1.13-2.3,6.41,6.41,0,0,0-3.08-2A7.83,7.83,0,0,0,31.68,13Zm2.53,1.58a4.26,4.26,0,0,1,2.67,2.31,3.68,3.68,0,0,1,.41,2,3.62,3.62,0,0,1-.48,2A4.4,4.4,0,0,1,34.49,23a3.54,3.54,0,0,1-1.3.26A3.73,3.73,0,0,1,31,22.8a4.45,4.45,0,0,1-2.27-2.58,3.25,3.25,0,0,1-.21-1.41,3.18,3.18,0,0,1,.21-1.4,4.52,4.52,0,0,1,2.56-2.74,3.51,3.51,0,0,1,1.61-.27A3.26,3.26,0,0,1,34.21,14.57Z" transform="translate(-1.83 -1.25)"/><path class="cls-1" d="M66.12,16.05a5.46,5.46,0,0,0-4.35,2.74,4.55,4.55,0,0,0-.48,2.5A3.84,3.84,0,0,0,62,23.54c.75,1.14,1.85,1.78,4.59,2.72,1.92.65,2.59,1,3,1.41a1.25,1.25,0,0,1,.35,1.13c-.16,1.11-1.2,1.67-3.07,1.66a10.27,10.27,0,0,1-4.2-1,2.49,2.49,0,0,0-.52-.21s-.25.64-.52,1.39L61,32.17c0,.1.09.19.69.48a12.16,12.16,0,0,0,6.22,1.17,6.58,6.58,0,0,0,4.51-1.95,4.69,4.69,0,0,0,1.25-3.22,4,4,0,0,0-.75-2.84c-.68-.94-1.81-1.57-4.6-2.56A8.65,8.65,0,0,1,65.59,22a1.55,1.55,0,0,1,.16-2.51,2.54,2.54,0,0,1,1.59-.43,7.23,7.23,0,0,1,3.8.95,5.82,5.82,0,0,0,.6.31c.06-.07,1.47-2.6,1.47-2.65a5.51,5.51,0,0,0-2.09-1.13A11.58,11.58,0,0,0,66.12,16.05Z" transform="translate(-1.83 -1.25)"/><path class="cls-1" d="M151.32,16.14a2.5,2.5,0,0,0-1.51,1.44,3.25,3.25,0,0,0,0,1.75,2.58,2.58,0,0,0,1.19,1.3,2.88,2.88,0,0,0,2.11,0,2.57,2.57,0,0,0,1.11-1.13,2.88,2.88,0,0,0-.08-2.23,2.47,2.47,0,0,0-1.11-1A3.11,3.11,0,0,0,151.32,16.14Zm1.6.51a1.85,1.85,0,0,1,1.07,1.8,1.84,1.84,0,0,1-1.93,2,1.89,1.89,0,0,1-1.47-.61,1.71,1.71,0,0,1-.47-1.37,1.69,1.69,0,0,1,.47-1.36A2.07,2.07,0,0,1,152.92,16.65Z" transform="translate(-1.83 -1.25)"/><path class="cls-1" d="M151.24,18.39l0,1.21h.19c.17,0,.17,0,.2-.45l0-.44h.23c.21,0,.25,0,.47.46s.25.47.44.47.22,0,.22-.05a5.11,5.11,0,0,0-.26-.5l-.25-.47.18-.22a.73.73,0,0,0,0-1c-.15-.19-.22-.2-.83-.23l-.65,0Zm1.2-.5c0,.28-.19.46-.54.46s-.24,0-.24-.37v-.36l.38,0C152.4,17.66,152.41,17.67,152.44,17.89Z" transform="translate(-1.83 -1.25)"/><path class="cls-1" d="M76.37,17.81v1.54l2.57,0,2.57,0,0,7.1,0,7.11h3.59l0-7.11,0-7.1,2.52,0c1.38,0,2.55,0,2.58,0a5.79,5.79,0,0,0,.07-1.53V16.3l-7,0h-7Z" transform="translate(-1.83 -1.25)"/><path class="cls-1" d="M94.31,16.35s0,3.94,0,8.65l0,8.56h11.55V30.47l-4,0-4,0v-4h6.83V23.24H97.94V19.35h4l3.95,0,0-1.51V16.29l-5.76,0A47.94,47.94,0,0,0,94.31,16.35Z" transform="translate(-1.83 -1.25)"/><path class="cls-1" d="M115.34,16.45c-.11.29-2.08,5.57-4.19,11.25l-1.51,4.08c-.34.92-.62,1.7-.62,1.75a9.1,9.1,0,0,0,1.86.07h1.86l.49-1.43c.27-.77.53-1.53.57-1.67l.09-.25,3.34,0h3.35l.58,1.66.57,1.68,2,0c1.07,0,1.95,0,1.95,0s-.76-2-1.7-4.48-2.37-6.22-3.2-8.38-1.55-4.06-1.61-4.2l-.1-.24h-3.6Zm2.15,4.81c.11.35.62,1.83,1.12,3.27s.91,2.66.91,2.71-.47.09-2.31.09c-1.26,0-2.3,0-2.3,0s2.27-6.77,2.31-6.73S117.37,20.9,117.49,21.26Z" transform="translate(-1.83 -1.25)"/><path class="cls-1" d="M129.3,24.93V33.6l1.71,0,1.7,0,0-5.18,0-5.17,1,2.22c.57,1.23,1.59,3.45,2.28,4.93l1.24,2.7h2.05l1.19-2.56c.64-1.4,1.69-3.64,2.31-5L144,23.08l0,5.26,0,5.26h3.45V16.26H144l-2.76,6.21c-1.52,3.43-2.77,6.22-2.78,6.21s-2-4.24-4.44-9.61l-1.29-2.82H129.3Z" transform="translate(-1.83 -1.25)"/><path class="cls-1" d="M17,28.89c-.52.12-.6.17-.46.25s.7.31,1.42.62a7.79,7.79,0,0,1,2.35,1.18,3.58,3.58,0,0,1,1.27,2.84,3.67,3.67,0,0,1-2,3.26,3.38,3.38,0,0,1-1.64.37c-.72,0-1-.08-2.77-.82-.82-.34-1.51-.61-1.52-.6a5.48,5.48,0,0,0,1,1.38,4.92,4.92,0,0,0,4.07,1.41,5,5,0,0,0,.55-9.9A6.77,6.77,0,0,0,17,28.89Z" transform="translate(-1.83 -1.25)"/></svg>
